img/icons/instagram-icon.svg

<svg width="25" height="25" viewBox="0 0 25 25" fill="none" xmlns="http://www.w3.org/2000/svg">
<path d="M18.2327 0H6.76726C3.03573 0 0 3.03573 0 6.76726V18.2329C0 21.9642 3.03573 25 6.76726 25H18.2329C21.9642 25 25 21.9642 25 18.2329V6.76726C25 3.03573 21.9642 0 18.2327 0V0ZM12.5 19.3357C8.73068 19.3357 5.66424 16.2693 5.66424 12.5C5.66424 8.73068 8.73068 5.66424 12.5 5.66424C16.2693 5.66424 19.3357 8.73068 19.3357 12.5C19.3357 16.2693 16.2693 19.3357 12.5 19.3357ZM19.4992 7.27633C18.3853 7.27633 17.4793 6.37034 17.4793 5.25645C17.4793 4.14256 18.3853 3.23638 19.4992 3.23638C20.6131 3.23638 21.5192 4.14256 21.5192 5.25645C21.5192 6.37034 20.6131 7.27633 19.4992 7.27633Z" fill="white"/>
<path d="M12.499 7.12978C9.53807 7.12978 7.12891 9.53876 7.12891 12.4999C7.12891 15.4609 9.53807 17.87 12.499 17.87C15.4602 17.87 17.8692 15.4609 17.8692 12.4999C17.8692 9.53876 15.4602 7.12978 12.499 7.12978Z" fill="white"/>
<path d="M19.4996 4.7022C19.194 4.7022 18.9453 4.95092 18.9453 5.25648C18.9453 5.56203 19.194 5.81075 19.4996 5.81075C19.8053 5.81075 20.0541 5.56222 20.0541 5.25648C20.0541 4.95073 19.8053 4.7022 19.4996 4.7022Z" fill="white"/>
</svg>

<svg width="25" height="25" fill="none" xmlns="http://www.w3.org/2000/svg"><path d="M18.233 0H6.767A6.775 6.775 0 000 6.767v11.466A6.775 6.775 0 006.767 25h11.466A6.775 6.775 0 0025 18.233V6.767A6.775 6.775 0 0018.233 0zM12.5 19.336A6.843 6.843 0 015.664 12.5 6.843 6.843 0 0112.5 5.664a6.843 6.843 0 016.836 6.836 6.843 6.843 0 01-6.836 6.836zm7-12.06a2.022 2.022 0 01-2.02-2.02c0-1.113.905-2.02 2.02-2.02 1.113 0 2.02.907 2.02 2.02 0 1.114-.907 2.02-2.02 2.02z" fill="#fff"/><path d="M12.499 7.13a5.376 5.376 0 00-5.37 5.37c0 2.96 2.41 5.37 5.37 5.37 2.961 0 5.37-2.41 5.37-5.37a5.376 5.376 0 00-5.37-5.37zM19.5 4.702a.555.555 0 10.001 1.11.555.555 0 00-.001-1.11z" fill="#fff"/></svg>
